X:1008
T:Flower of Fincastle, The
C:Joe Buchanan's Scottish Tome - Page 597.0
I:597 0
Z:Carl Allison
R:Waltz
L:1/4
M:3/4
K:D
"D"f>A A | "A"e>A A | "D"d>A A | A F D | D2 "A"C | C2 E | "A7"G3- | G2 A |
"A"c>E E | "A7"B>E E | G3 | G F E | "D"D3 | "G"B3 | "A"A3 | "A7"((3A/B/A/) ^G A |
"D"f>A A | "A"e>A A | "D"d>A A | A F D | D2 "A"C | C2 E | "A7"G3- | G2 A |
"A"c2 B | "A7"((3A/B/A/) ^G A | "D"f2 A | ((3B/A/G/) ^G A | "G"B2 g | "A7"f2 e | "D"d>d d | d3 !fine! :|
[K:G]"G"B3 | d3 | e d>^c | d3 | g3 | B d>B | "Am"c A2- | "D"A3 |
"Am"A3 | c3 | A c>e | "D7"a3 | a g>f | f e>d | "G"d B2- | B3 |
"G"B3 | d3 | e d>^c | d3 | g3 | B c>d | "C"e3- | e3 |
"Am"e>a a | "C"a e2 | "G"d>g g | "Em"g B2 | "A7"A>^G A | "D7"e>d G | "G"G>G G | G3 |]

